public/icons/vbeat-1.svg

<svg version="1.1" id="Layer_1" xmlns="http://www.w3.org/2000/svg" xmlns:xlink="http://www.w3.org/1999/xlink" x="0px" y="0px"
	 width="100%" viewBox="0 0 800 800" enable-background="new 0 0 800 800" xml:space="preserve">
<path fill="#000000" opacity="1.000000" stroke="none" 
	d="
M338.180542,356.737976 
	C329.081512,337.290466 320.156372,318.175354 311.357147,299.329926 
	C312.082458,298.512726 312.287292,298.073120 312.504639,298.066895 
	C325.127655,297.703491 337.821625,296.725189 350.251770,299.680054 
	C359.300079,301.831085 365.901154,307.071075 369.776642,315.973145 
	C375.226227,328.490753 381.312988,340.731323 387.154907,353.077332 
	C388.130890,355.139954 389.246979,357.136322 390.586090,359.718018 
	C393.245605,356.096100 393.662384,352.438019 394.644043,349.028992 
	C396.759888,341.681213 398.743774,334.295563 400.817474,326.935486 
	C401.580139,324.228516 402.829468,321.650085 406.129913,321.997864 
	C409.072815,322.307953 409.888611,324.788940 410.326202,327.444336 
	C415.235657,357.237488 420.164215,387.027588 425.175568,416.803741 
	C425.696747,419.900330 424.442047,421.979279 422.248718,423.711151 
	C419.579590,425.818665 418.891174,428.536591 419.427643,431.718658 
	C421.689636,445.135559 423.996704,458.545013 426.194885,471.972351 
	C426.625061,474.599976 427.171326,477.281769 430.248505,477.388153 
	C433.445251,477.498749 433.950958,474.511047 434.599182,472.121399 
	C438.689758,457.041992 442.874542,441.985687 446.715942,426.842560 
	C447.900665,422.172333 450.004578,420.288605 454.990265,420.556824 
	C462.890686,420.981934 470.830750,420.670166 478.316986,420.670166 
	C479.333435,422.761810 478.625854,423.787231 478.156677,424.825470 
	C466.154572,451.382996 453.975647,477.862671 442.251282,504.542145 
	C439.403717,511.022003 435.417542,513.771484 428.491821,513.154114 
	C423.529724,512.711792 418.516327,513.231201 413.523590,512.572144 
	C410.907440,512.226807 409.294556,511.177155 408.179596,508.821106 
	C398.634827,488.651306 389.045074,468.502716 379.421600,448.370331 
	C378.492798,446.427277 378.440521,444.472015 378.944427,442.532288 
	C384.333344,421.788116 389.774139,401.057434 395.221771,380.328583 
	C395.425385,379.553741 395.843628,378.835297 396.478821,377.348846 
	C403.589569,390.001801 408.134979,403.227692 415.915588,416.531525 
	C412.070068,392.735596 408.461517,370.405914 404.852936,348.076233 
	C404.600067,348.036438 404.347198,347.996643 404.094330,347.956848 
	C402.742157,352.947388 401.291412,357.913971 400.070953,362.936523 
	C399.193817,366.546021 397.466858,369.477875 394.092743,371.093475 
	C389.867615,373.116547 388.476227,376.746277 387.404175,380.968567 
	C383.520325,396.265564 379.399170,411.502380 375.339111,426.754333 
	C375.004211,428.012512 374.455200,429.213715 373.408813,432.071350 
	C361.332214,406.232758 349.843323,381.651581 338.180542,356.737976 
z"/>
<path fill="#000000" opacity="1.000000" stroke="none" 
	d="
M499.821350,299.638916 
	C512.407166,296.663483 524.280579,292.420105 536.469666,290.319183 
	C537.729797,292.839539 536.567566,294.285767 535.920532,295.740356 
	C524.622864,321.140289 513.300293,346.529205 501.946014,371.903900 
	C496.441132,384.206238 490.766663,396.433716 485.373749,408.784485 
	C483.895660,412.169556 481.887543,413.487793 478.169189,413.399963 
	C468.678986,413.175903 459.173553,413.539001 449.686768,413.251740 
	C444.874878,413.106079 442.393433,414.756927 441.186798,419.516266 
	C438.534515,429.977692 435.448334,440.329193 432.527374,450.722229 
	C432.313690,451.482391 432.405060,452.423309 431.139038,452.941803 
	C429.023071,445.580048 428.185272,438.028412 427.179688,430.528229 
	C427.003662,429.215515 428.000732,427.697021 428.598419,426.336121 
	C445.399597,388.082672 462.287445,349.867004 478.951080,311.553802 
	C481.092438,306.630310 484.270172,303.776825 489.343018,302.574493 
	C492.737640,301.769897 496.065399,300.683014 499.821350,299.638916 
z"/>
<path fill="#000000" opacity="1.000000" stroke="none" 
	d="
M375.137695,455.225891 
	C370.568329,458.041901 368.972961,457.493652 366.602539,452.621643 
	C359.534698,438.094971 352.502075,423.551056 345.394806,409.043732 
	C344.534332,407.287323 343.983002,405.279877 341.655304,403.560730 
	C339.190979,408.096008 336.567474,412.432068 334.435944,416.997803 
	C332.623413,420.880096 329.802368,422.315125 325.721680,422.288696 
	C315.223694,422.220764 304.724304,422.348083 294.226654,422.258545 
	C291.227905,422.233002 289.019135,422.821503 286.948303,425.425781 
	C282.180969,431.421143 274.058105,431.945801 268.849945,427.075012 
	C263.471771,422.045135 263.333801,413.758575 268.545746,408.799469 
	C273.682098,403.912231 282.024841,404.275391 286.819122,409.940186 
	C288.616241,412.063599 290.404694,413.109131 293.140228,413.085449 
	C302.971497,413.000275 312.804596,412.965363 322.635284,413.073486 
	C325.745178,413.107666 327.552490,411.786957 328.841156,409.077118 
	C331.559540,403.360596 334.481354,397.741180 337.243347,392.044861 
	C338.230194,390.009644 339.327423,388.117676 341.811340,387.940430 
	C344.388580,387.756500 345.652313,389.615967 346.641846,391.623749 
	C356.065399,410.743958 365.856293,429.686340 374.547272,449.161377 
	C375.355896,450.973419 376.286133,452.812012 375.137695,455.225891 
z"/>
</svg>

<svg xmlns="http://www.w3.org/2000/svg" viewBox="0 0 800 800">
	<path
		d="M338.18 356.738c-9.098-19.448-18.024-38.563-26.823-57.408.725-.817.93-1.257 1.148-1.263 12.623-.364 25.317-1.342 37.747 1.613 9.048 2.151 15.65 7.391 19.525 16.293 5.45 12.518 11.536 24.758 17.378 37.104.976 2.063 2.092 4.06 3.431 6.641 2.66-3.622 3.076-7.28 4.058-10.689 2.116-7.348 4.1-14.733 6.173-22.094.763-2.706 2.012-5.285 5.313-4.937 2.943.31 3.759 2.79 4.196 5.446 4.91 29.793 9.838 59.584 14.85 89.36.52 3.096-.734 5.175-2.927 6.907-2.67 2.108-3.358 4.826-2.821 8.008 2.262 13.417 4.569 26.826 6.767 40.253.43 2.628.976 5.31 4.054 5.416 3.196.11 3.702-2.877 4.35-5.267 4.09-15.079 8.276-30.135 12.117-45.278 1.185-4.67 3.289-6.554 8.274-6.286 7.9.425 15.84.113 23.327.113 1.016 2.092.309 3.117-.16 4.155-12.002 26.558-24.181 53.038-35.906 79.717-2.847 6.48-6.833 9.23-13.76 8.612-4.961-.442-9.975.077-14.967-.582-2.617-.345-4.23-1.395-5.344-3.75a17141.129 17141.129 0 00-28.758-60.452c-.93-1.943-.981-3.898-.478-5.838 5.39-20.744 10.83-41.475 16.278-62.203.203-.775.622-1.494 1.257-2.98 7.11 12.653 11.656 25.879 19.437 39.183l-11.063-68.456-.759-.12c-1.352 4.991-2.803 9.958-4.023 14.98-.877 3.61-2.604 6.542-5.978 8.157-4.225 2.024-5.617 5.653-6.689 9.876-3.884 15.297-8.005 30.533-12.065 45.785-.335 1.259-.884 2.46-1.93 5.317-12.077-25.838-23.566-50.42-35.228-75.333z" />
	<path
		d="M499.821 299.639c12.586-2.976 24.46-7.219 36.649-9.32 1.26 2.52.098 3.967-.55 5.421a37404.2 37404.2 0 01-33.974 76.164c-5.505 12.302-11.18 24.53-16.572 36.88-1.478 3.386-3.486 4.704-7.205 4.616-9.49-.224-18.995.139-28.482-.148-4.812-.146-7.294 1.505-8.5 6.264-2.652 10.462-5.739 20.813-8.66 31.206-.213.76-.122 1.701-1.388 2.22-2.116-7.362-2.954-14.914-3.96-22.414-.175-1.312.822-2.831 1.42-4.192 16.8-38.253 33.688-76.469 50.352-114.782 2.141-4.924 5.32-7.777 10.392-8.98 3.395-.804 6.722-1.891 10.478-2.935zM375.138 455.226c-4.57 2.816-6.165 2.268-8.535-2.604-7.068-14.527-14.1-29.07-21.208-43.578-.86-1.757-1.412-3.764-3.74-5.483-2.464 4.535-5.088 8.871-7.22 13.437-1.812 3.882-4.633 5.317-8.713 5.29-10.498-.067-20.998.06-31.495-.03-3-.025-5.208.564-7.279 3.168-4.767 5.995-12.89 6.52-18.098 1.649-5.378-5.03-5.516-13.316-.304-18.276 5.136-4.887 13.479-4.524 18.273 1.141 1.797 2.124 3.586 3.17 6.321 3.145 9.831-.085 19.665-.12 29.495-.012 3.11.035 4.917-1.286 6.206-3.996 2.719-5.716 5.64-11.336 8.402-17.032.987-2.035 2.084-3.927 4.568-4.105 2.578-.183 3.841 1.676 4.83 3.684 9.424 19.12 19.215 38.062 27.906 57.537.809 1.812 1.74 3.651.59 6.065z" />
</svg>
